fs/clipboard_data_bar_32_filled.svg

<svg viewBox="0 0 32 32" fill="none" xmlns="http://www.w3.org/2000/svg" height="1em" width="1em">
  <path d="M23.5 4H21.8293C21.4175 2.83481 20.3062 2 19 2H13C11.6938 2 10.5825 2.83481 10.1707 4H8.5C6.567 4 5 5.567 5 7.5V26.5C5 28.433 6.567 30 8.5 30H23.5C25.433 30 27 28.433 27 26.5V7.5C27 5.567 25.433 4 23.5 4ZM13 4H19C19.5523 4 20 4.44772 20 5C20 5.55228 19.5523 6 19 6H13C12.4477 6 12 5.55228 12 5C12 4.44772 12.4477 4 13 4ZM10.5 12C11.3284 12 12 12.6716 12 13.5V22.5C12 23.3284 11.3284 24 10.5 24C9.67157 24 9 23.3284 9 22.5V13.5C9 12.6716 9.67157 12 10.5 12ZM14.5 15.5C14.5 14.6716 15.1716 14 16 14C16.8284 14 17.5 14.6716 17.5 15.5V22.5C17.5 23.3284 16.8284 24 16 24C15.1716 24 14.5 23.3284 14.5 22.5V15.5ZM21.5 18C22.3284 18 23 18.6716 23 19.5V22.5C23 23.3284 22.3284 24 21.5 24C20.6716 24 20 23.3284 20 22.5V19.5C20 18.6716 20.6716 18 21.5 18Z" fill="#212121"/>
</svg>

<svg viewBox="0 0 32 32" fill="none" xmlns="http://www.w3.org/2000/svg" height="1em" width="1em">
  <path d="M23.5 4h-1.67A3.001 3.001 0 0 0 19 2h-6a3.001 3.001 0 0 0-2.83 2H8.5A3.5 3.5 0 0 0 5 7.5v19A3.5 3.5 0 0 0 8.5 30h15a3.5 3.5 0 0 0 3.5-3.5v-19A3.5 3.5 0 0 0 23.5 4ZM13 4h6a1 1 0 1 1 0 2h-6a1 1 0 1 1 0-2Zm-2.5 8a1.5 1.5 0 0 1 1.5 1.5v9a1.5 1.5 0 0 1-3 0v-9a1.5 1.5 0 0 1 1.5-1.5Zm4 3.5a1.5 1.5 0 0 1 3 0v7a1.5 1.5 0 0 1-3 0v-7Zm7 2.5a1.5 1.5 0 0 1 1.5 1.5v3a1.5 1.5 0 0 1-3 0v-3a1.5 1.5 0 0 1 1.5-1.5Z" fill="#212121"/>
</svg>
